X:789
T:George White's Favourite
T:Carrowcastle Lasses
R:reel
H:Also played in G, #472
H:I first heard the D version from Elisabet Brogeby
D:Matt Molloy & Sean Keane: Contentment is Wealth
D:Kevin Crawford: 'd' flute album
Z:id:hn-reel-789
M:C|
K:D
|:BF~F2 BFAF|EDEF DB,A,B,|DF~F2 BF~F2|BFAF E2FA|
BF~F2 BFAF|EDEF DB,A,B,|DEFA dBAF|EDEF D4:|
|:dBAB defe|d2ef dBAF|ABde fded|Beed e2de|
fdBd ~A3B|d2AB defe|d2cA BFAF|EDEF D4:|
